static/img/device/installation-bs3-extm3.svg

<svg width="200" height="144" viewBox="0 0 200 144" fill="none" xmlns="http://www.w3.org/2000/svg">
<path d="M200 0H0V144H200V0Z" fill="white"/>
<mask id="mask0_817_1982" style="mask-type:luminance" maskUnits="userSpaceOnUse" x="16" y="16" width="168" height="111">
<path d="M183.097 16.6189H16.8917V126.783H183.097V16.6189Z" fill="white"/>
</mask>
<g mask="url(#mask0_817_1982)">
<path d="M153.942 -216.657H46.2447C31.7896 -216.657 20.0714 -204.9 20.0714 -190.397V99.2565C20.0714 113.759 31.7896 125.516 46.2447 125.516H153.942C168.398 125.516 180.116 113.759 180.116 99.2565V-190.397C180.116 -204.9 168.398 -216.657 153.942 -216.657Z" stroke="#040000" stroke-width="2" stroke-linecap="round" stroke-linejoin="round"/>
<path d="M176.691 93.5449V107.853C176.691 115.723 167 122.162 155.146 122.162H45.0407C33.199 122.162 23.4965 115.723 23.4965 107.853V93.5449" stroke="#040000" stroke-width="0.5" stroke-linecap="round" stroke-linejoin="round"/>
<path d="M23.4965 56.718V-191.617C23.4965 -203.498 33.1873 -213.232 45.0407 -213.232H155.158C167 -213.232 176.702 -203.509 176.702 -191.617V56.7062" stroke="#040000" stroke-width="0.5" stroke-linecap="round" stroke-linejoin="round"/>
<path d="M177.708 56.7065H131.767V95.5624H125.805V120.168H160.196V99.8432C160.196 96.6765 161.552 93.5334 166.743 93.5334H177.708V56.7065Z" stroke="#040000" stroke-linecap="round" stroke-linejoin="round"/>
<path d="M131.767 94.0143H134.397V56.7065" stroke="#040000" stroke-width="0.5" stroke-linejoin="round"/>
<path d="M164.463 56.7183V93.7562" stroke="#040000" stroke-width="0.5" stroke-miterlimit="10"/>
<path d="M168.566 66.6992C169.709 66.6992 170.635 65.7698 170.635 64.6233C170.635 63.4768 169.709 62.5474 168.566 62.5474C167.424 62.5474 166.497 63.4768 166.497 64.6233C166.497 65.7698 167.424 66.6992 168.566 66.6992Z" stroke="#040000" stroke-width="0.35" stroke-linejoin="round"/>
<path d="M168.566 83.5058C169.709 83.5058 170.635 82.5764 170.635 81.4299C170.635 80.2834 169.709 79.354 168.566 79.354C167.424 79.354 166.497 80.2834 166.497 81.4299C166.497 82.5764 167.424 83.5058 168.566 83.5058Z" stroke="#040000" stroke-width="0.35" stroke-linejoin="round"/>
<path d="M22.3041 56.7065H68.4202V95.5624H74.3819V120.168H39.9907C39.9907 120.168 39.9907 103.01 39.9907 99.8432C39.9907 96.6765 38.6347 93.5334 33.4444 93.5334C28.2542 93.5334 22.3041 93.5334 22.3041 93.5334V56.7065Z" stroke="#040000" stroke-linecap="round" stroke-linejoin="round"/>
<path d="M68.4201 94.0143H65.7899V56.7065" stroke="#040000" stroke-width="0.5" stroke-linejoin="round"/>
<path d="M35.7239 56.7183V93.7562" stroke="#040000" stroke-width="0.5" stroke-linejoin="round"/>
<path d="M31.6208 66.6992C32.7635 66.6992 33.6899 65.7698 33.6899 64.6233C33.6899 63.4768 32.7635 62.5474 31.6208 62.5474C30.4781 62.5474 29.5517 63.4768 29.5517 64.6233C29.5517 65.7698 30.4781 66.6992 31.6208 66.6992Z" stroke="#040000" stroke-width="0.35" stroke-linejoin="round"/>
<path d="M31.6208 83.5058C32.7635 83.5058 33.6899 82.5764 33.6899 81.4299C33.6899 80.2834 32.7635 79.354 31.6208 79.354C30.4781 79.354 29.5517 80.2834 29.5517 81.4299C29.5517 82.5764 30.4781 83.5058 31.6208 83.5058Z" stroke="#040000" stroke-width="0.35" stroke-linejoin="round"/>
<path d="M109.206 115.137C109.206 117.858 105.781 120.086 101.584 120.086H98.5914C94.3948 120.086 90.9697 117.858 90.9697 115.137C90.9697 112.416 94.3948 110.188 98.5914 110.188H101.584C105.781 110.188 109.206 112.416 109.206 115.137Z" stroke="#040000" stroke-width="0.5" stroke-linejoin="round"/>
<path d="M128.938 35.3491H71.2608C70.712 35.3491 70.2672 35.7955 70.2672 36.346V92.6184C70.2672 93.169 70.712 93.6153 71.2608 93.6153H128.938C129.487 93.6153 129.932 93.169 129.932 92.6184V36.346C129.932 35.7955 129.487 35.3491 128.938 35.3491Z" stroke="#040000" stroke-width="0.75" stroke-linejoin="round"/>
<path d="M134.198 11.0128C134.198 11.0128 134.198 10.9659 134.198 10.9424V8.43257C134.198 7.81097 133.696 7.29492 133.065 7.29492H130.504H121.679C119.645 7.29492 117.985 8.96034 117.985 11.0011V22.2602C117.985 24.301 119.645 25.9664 121.679 25.9664H133.065C133.684 25.9664 134.198 25.462 134.198 24.8287V22.3189C134.198 22.3189 134.198 22.272 134.198 22.2485V10.9893V11.0128Z" stroke="#040000" stroke-width="0.75" stroke-linejoin="round"/>
<path d="M123.058 10.3091C121.959 10.3091 121.071 11.2122 121.071 12.3029V20.9349C121.071 22.0374 121.971 22.9287 123.058 22.9287H134.21V10.2974H123.058V10.3091Z" stroke="#040000" stroke-width="0.5" stroke-linejoin="round"/>
<path d="M132.807 19.1523H125.186V20.8295H132.807V19.1523Z" stroke="#040000" stroke-width="0.35" stroke-linejoin="round"/>
<path d="M132.819 10.3325V22.9287" stroke="#040000" stroke-width="0.35" stroke-linejoin="round"/>
<path d="M66.0004 22.2719C66.0004 22.2719 66.0004 22.3188 66.0004 22.3423V24.8522C66.0004 25.4738 66.5031 25.9898 67.1343 25.9898H69.6944H78.5201C80.5541 25.9898 82.2141 24.3244 82.2141 22.2837V11.0245C82.2141 8.98378 80.5541 7.31836 78.5201 7.31836H67.1343C66.5147 7.31836 66.0004 7.82268 66.0004 8.45601V10.9659C66.0004 10.9659 66.0004 11.0128 66.0004 11.0362V22.2954V22.2719Z" stroke="#040000" stroke-width="0.75" stroke-linejoin="round"/>
<path d="M77.1524 22.9756C78.2513 22.9756 79.1397 22.0725 79.1397 20.9818V12.3498C79.1397 11.2473 78.2396 10.356 77.1524 10.356H66.0004V22.9873H77.1524V22.9756Z" stroke="#040000" stroke-width="0.5" stroke-linejoin="round"/>
<path d="M67.3915 20.8528H75.0132V19.1756H67.3915V20.8528Z" stroke="#040000" stroke-width="0.35" stroke-linejoin="round"/>
<path d="M67.3915 22.9521V10.356" stroke="#040000" stroke-width="0.35" stroke-linejoin="round"/>
<path d="M100.099 -40.9903C100.099 -40.9903 96.534 -40.9082 93.3778 -42.5736C90.2333 -44.2507 89.1344 -45.8106 88.5266 -46.4674C87.9187 -47.1242 87.0303 -46.655 87.0303 -45.9279V-6.48563C87.0303 -5.87576 87.5797 -5.64119 87.8603 -5.64119C88.1408 -5.64119 88.4681 -5.64119 89.3332 -5.64119C90.1982 -5.64119 91.4256 -4.94921 91.4256 -3.54182V33.0035C91.4256 33.2616 91.6244 33.4258 91.8465 33.4258H108.329C108.586 33.4258 108.75 33.2146 108.75 33.0035C108.75 32.7924 108.75 -2.60355 108.75 -3.54182C108.75 -4.48008 109.498 -5.64119 110.842 -5.64119H112.304C112.818 -5.64119 113.145 -6.07513 113.145 -6.47389V-45.9161C113.145 -46.7958 112.14 -46.9952 111.661 -46.4557C111.193 -45.9044 107.312 -40.9785 100.088 -40.9785L100.099 -40.9903Z" stroke="#040000" stroke-width="0.75" stroke-linejoin="round"/>
<path d="M54.0067 47.3003C56.3244 47.3003 58.2033 45.4152 58.2033 43.0898C58.2033 40.7645 56.3244 38.8794 54.0067 38.8794C51.689 38.8794 49.8101 40.7645 49.8101 43.0898C49.8101 45.4152 51.689 47.3003 54.0067 47.3003Z" stroke="#040000" stroke-width="0.5" stroke-linejoin="round"/>
<path d="M146.145 47.3003C148.463 47.3003 150.342 45.4152 150.342 43.0898C150.342 40.7645 148.463 38.8794 146.145 38.8794C143.828 38.8794 141.949 40.7645 141.949 43.0898C141.949 45.4152 143.828 47.3003 146.145 47.3003Z" stroke="#040000" stroke-width="0.5" stroke-linejoin="round"/>
<path d="M37.2904 36.8035C39.6081 36.8035 41.487 34.9184 41.487 32.593C41.487 30.2677 39.6081 28.3826 37.2904 28.3826C34.9726 28.3826 33.0938 30.2677 33.0938 32.593C33.0938 34.9184 34.9726 36.8035 37.2904 36.8035Z" stroke="#040000" stroke-width="0.5" stroke-linejoin="round"/>
<path d="M37.2904 36.264C39.3111 36.264 40.9493 34.6205 40.9493 32.5931C40.9493 30.5657 39.3111 28.9221 37.2904 28.9221C35.2696 28.9221 33.6315 30.5657 33.6315 32.5931C33.6315 34.6205 35.2696 36.264 37.2904 36.264Z" stroke="#040000" stroke-width="0.3" stroke-linejoin="round"/>
<path d="M162.897 36.8035C165.214 36.8035 167.093 34.9184 167.093 32.593C167.093 30.2677 165.214 28.3826 162.897 28.3826C160.579 28.3826 158.7 30.2677 158.7 32.593C158.7 34.9184 160.579 36.8035 162.897 36.8035Z" stroke="#040000" stroke-width="0.5" stroke-linejoin="round"/>
<path d="M162.897 36.2638C164.918 36.2638 166.556 34.6202 166.556 32.5928C166.556 30.5654 164.918 28.9219 162.897 28.9219C160.876 28.9219 159.238 30.5654 159.238 32.5928C159.238 34.6202 160.876 36.2638 162.897 36.2638Z" stroke="#040000" stroke-width="0.3" stroke-linejoin="round"/>
<path d="M69.4138 54.771H68.9345C67.7079 54.771 66.7135 55.7687 66.7135 56.9994V90.7769C66.7135 92.0076 67.7079 93.0052 68.9345 93.0052H69.4138C70.6405 93.0052 71.6349 92.0076 71.6349 90.7769V56.9994C71.6349 55.7687 70.6405 54.771 69.4138 54.771Z" stroke="#952947" stroke-width="1.5" stroke-miterlimit="10" stroke-linecap="round" stroke-linejoin="round" stroke-dasharray="3 3"/>
<path d="M38.3074 120.426V121.681C38.3074 123.061 39.4222 124.179 40.7973 124.179H73.9261C75.3012 124.179 76.416 123.061 76.416 121.681V120.426C76.416 119.046 75.3012 117.928 73.9261 117.928H40.7973C39.4222 117.928 38.3074 119.046 38.3074 120.426Z" stroke="#952947" stroke-width="1.5" stroke-miterlimit="10" stroke-linecap="round" stroke-linejoin="round" stroke-dasharray="3 3"/>
<path d="M123.97 120.426V121.681C123.97 123.061 125.085 124.179 126.46 124.179H159.589C160.964 124.179 162.078 123.061 162.078 121.681V120.426C162.078 119.046 160.964 117.928 159.589 117.928H126.46C125.085 117.928 123.97 119.046 123.97 120.426Z" stroke="#952947" stroke-width="1.5" stroke-miterlimit="10" stroke-linecap="round" stroke-linejoin="round" stroke-dasharray="3 3"/>
<path d="M21.6845 54.771H20.387C19.0054 54.771 17.8854 55.8947 17.8854 57.2809V90.4954C17.8854 91.8816 19.0054 93.0052 20.387 93.0052H21.6845C23.0661 93.0052 24.1862 91.8816 24.1862 90.4954V57.2809C24.1862 55.8947 23.0661 54.771 21.6845 54.771Z" stroke="#952947" stroke-width="1.5" stroke-miterlimit="10" stroke-linecap="round" stroke-linejoin="round" stroke-dasharray="3 3"/>
<path d="M131.124 54.771H130.645C129.418 54.771 128.424 55.7687 128.424 56.9994V90.7769C128.424 92.0076 129.418 93.0052 130.645 93.0052H131.124C132.351 93.0052 133.345 92.0076 133.345 90.7769V56.9994C133.345 55.7687 132.351 54.771 131.124 54.771Z" stroke="#952947" stroke-width="1.5" stroke-miterlimit="10" stroke-linecap="round" stroke-linejoin="round" stroke-dasharray="3 3"/>
<path d="M179.707 54.771H178.608C177.258 54.771 176.165 55.8685 176.165 57.2222V90.554C176.165 91.9078 177.258 93.0052 178.608 93.0052H179.707C181.056 93.0052 182.15 91.9078 182.15 90.554V57.2222C182.15 55.8685 181.056 54.771 179.707 54.771Z" stroke="#952947" stroke-width="1.5" stroke-miterlimit="10" stroke-linecap="round" stroke-linejoin="round" stroke-dasharray="3 3"/>
</g>
</svg>

<svg xmlns="http://www.w3.org/2000/svg" width="200" height="144" fill="none" viewBox="0 0 200 144"><path fill="#fff" d="M200 0H0v144h200z"/><mask id="a" width="168" height="111" x="16" y="16" maskUnits="userSpaceOnUse" style="mask-type:luminance"><path fill="#fff" d="M183.097 16.619H16.892v110.164h166.205z"/></mask><g mask="url(#a)"><path stroke="#040000" stroke-linecap="round" stroke-linejoin="round" stroke-width="2" d="M153.942-216.657H46.245c-14.455 0-26.174 11.757-26.174 26.26V99.257c0 14.502 11.719 26.259 26.174 26.259h107.697c14.456 0 26.174-11.757 26.174-26.26v-289.653c0-14.503-11.718-26.26-26.174-26.26"/><path stroke="#040000" stroke-linecap="round" stroke-linejoin="round" stroke-width=".5" d="M176.691 93.545v14.308c0 7.87-9.691 14.309-21.545 14.309H45.041c-11.842 0-21.544-6.439-21.544-14.309V93.545M23.497 56.718v-248.335c0-11.881 9.69-21.615 21.544-21.615h110.117c11.842 0 21.544 9.723 21.544 21.615V56.706"/><path stroke="#040000" stroke-linecap="round" stroke-linejoin="round" d="M177.708 56.707h-45.941v38.855h-5.962v24.606h34.391V99.843c0-3.166 1.356-6.31 6.547-6.31h10.965z"/><path stroke="#040000" stroke-linejoin="round" stroke-width=".5" d="M131.767 94.014h2.63V56.707"/><path stroke="#040000" stroke-miterlimit="10" stroke-width=".5" d="M164.463 56.718v37.038"/><path stroke="#040000" stroke-linejoin="round" stroke-width=".35" d="M168.566 66.7c1.143 0 2.069-.93 2.069-2.077a2.07 2.07 0 0 0-2.069-2.076c-1.142 0-2.069.93-2.069 2.076 0 1.147.927 2.076 2.069 2.076ZM168.566 83.506c1.143 0 2.069-.93 2.069-2.076a2.07 2.07 0 0 0-2.069-2.076c-1.142 0-2.069.93-2.069 2.076s.927 2.076 2.069 2.076Z"/><path stroke="#040000" stroke-linecap="round" stroke-linejoin="round" d="M22.304 56.707H68.42v38.855h5.962v24.606H39.99V99.843c0-3.166-1.356-6.31-6.547-6.31h-11.14z"/><path stroke="#040000" stroke-linejoin="round" stroke-width=".5" d="M68.42 94.014h-2.63V56.707M35.724 56.718v37.038"/><path stroke="#040000" stroke-linejoin="round" stroke-width=".35" d="M31.62 66.7c1.143 0 2.07-.93 2.07-2.077a2.073 2.073 0 0 0-2.07-2.076c-1.142 0-2.068.93-2.068 2.076 0 1.147.926 2.076 2.069 2.076ZM31.62 83.506c1.143 0 2.07-.93 2.07-2.076a2.073 2.073 0 0 0-2.07-2.076c-1.142 0-2.068.93-2.068 2.076s.926 2.076 2.069 2.076Z"/><path stroke="#040000" stroke-linejoin="round" stroke-width=".5" d="M109.206 115.137c0 2.721-3.425 4.949-7.622 4.949h-2.993c-4.196 0-7.621-2.228-7.621-4.949s3.425-4.949 7.621-4.949h2.993c4.197 0 7.622 2.228 7.622 4.949Z"/><path stroke="#040000" stroke-linejoin="round" stroke-width=".75" d="M128.938 35.35H71.261a.995.995 0 0 0-.994.996v56.272c0 .551.445.997.994.997h57.677a.995.995 0 0 0 .994-.997V36.346a.995.995 0 0 0-.994-.997ZM134.198 11.013v-2.58c0-.622-.502-1.138-1.133-1.138h-11.386c-2.034 0-3.694 1.665-3.694 3.706v11.26c0 2.04 1.66 3.705 3.694 3.705h11.386c.619 0 1.133-.504 1.133-1.137v-13.84z"/><path stroke="#040000" stroke-linejoin="round" stroke-width=".5" d="M123.058 10.31a1.996 1.996 0 0 0-1.987 1.993v8.632c0 1.102.9 1.994 1.987 1.994h11.152V10.297h-11.152z"/><path stroke="#040000" stroke-linejoin="round" stroke-width=".35" d="M132.807 19.152h-7.621v1.677h7.621zM132.819 10.333v12.596"/><path stroke="#040000" stroke-linejoin="round" stroke-width=".75" d="M66 22.272v2.58c0 .622.503 1.138 1.134 1.138H78.52c2.034 0 3.694-1.666 3.694-3.706v-11.26c0-2.04-1.66-3.706-3.694-3.706H67.134c-.62 0-1.134.505-1.134 1.138v13.84z"/><path stroke="#040000" stroke-linejoin="round" stroke-width=".5" d="M77.152 22.976a1.996 1.996 0 0 0 1.988-1.994V12.35c0-1.103-.9-1.994-1.988-1.994H66v12.631h11.152z"/><path stroke="#040000" stroke-linejoin="round" stroke-width=".35" d="M67.392 20.853h7.621v-1.677h-7.622zM67.392 22.952V10.356"/><path stroke="#040000" stroke-linejoin="round" stroke-width=".75" d="M100.099-40.99s-3.565.082-6.721-1.584c-3.145-1.677-4.244-3.237-4.851-3.893-.608-.657-1.497-.188-1.497.54v39.441c0 .61.55.845.83.845h1.473c.865 0 2.093.692 2.093 2.1v36.545c0 .258.198.422.42.422h16.483a.42.42 0 0 0 .421-.422V-3.542c0-.938.748-2.1 2.092-2.1h1.462a.843.843 0 0 0 .841-.832v-39.442c0-.88-1.005-1.08-1.484-.54-.468.552-4.349 5.478-11.573 5.478z"/><path stroke="#040000" stroke-linejoin="round" stroke-width=".5" d="M54.007 47.3a4.204 4.204 0 0 0 4.196-4.21 4.204 4.204 0 0 0-4.196-4.21 4.204 4.204 0 0 0-4.197 4.21 4.204 4.204 0 0 0 4.197 4.21ZM146.145 47.3a4.204 4.204 0 0 0 4.197-4.21 4.204 4.204 0 0 0-4.197-4.21 4.203 4.203 0 0 0-4.196 4.21 4.204 4.204 0 0 0 4.196 4.21ZM37.29 36.804a4.204 4.204 0 0 0 4.197-4.211 4.204 4.204 0 0 0-4.197-4.21 4.203 4.203 0 0 0-4.196 4.21 4.204 4.204 0 0 0 4.196 4.21Z"/><path stroke="#040000" stroke-linejoin="round" stroke-width=".3" d="M37.29 36.264a3.665 3.665 0 0 0 3.66-3.67 3.665 3.665 0 0 0-3.66-3.672 3.665 3.665 0 0 0-3.658 3.671 3.665 3.665 0 0 0 3.658 3.671Z"/><path stroke="#040000" stroke-linejoin="round" stroke-width=".5" d="M162.897 36.804a4.204 4.204 0 0 0 4.196-4.211 4.203 4.203 0 0 0-4.196-4.21 4.204 4.204 0 0 0-4.197 4.21 4.204 4.204 0 0 0 4.197 4.21Z"/><path stroke="#040000" stroke-linejoin="round" stroke-width=".3" d="M162.897 36.264a3.665 3.665 0 0 0 3.659-3.671 3.665 3.665 0 0 0-3.659-3.671 3.665 3.665 0 0 0-3.659 3.67 3.665 3.665 0 0 0 3.659 3.672Z"/><path stroke="#952947" stroke-dasharray="3 3" stroke-linecap="round" stroke-linejoin="round" stroke-miterlimit="10" stroke-width="1.5" d="M69.414 54.771h-.48a2.225 2.225 0 0 0-2.22 2.228v33.778c0 1.23.994 2.228 2.22 2.228h.48a2.225 2.225 0 0 0 2.22-2.228V56.999c0-1.23-.993-2.228-2.22-2.228M38.307 120.426v1.255a2.494 2.494 0 0 0 2.49 2.498h33.13a2.494 2.494 0 0 0 2.489-2.498v-1.255a2.494 2.494 0 0 0-2.49-2.498H40.797a2.494 2.494 0 0 0-2.49 2.498M123.97 120.426v1.255a2.494 2.494 0 0 0 2.49 2.498h33.129a2.493 2.493 0 0 0 2.489-2.498v-1.255a2.493 2.493 0 0 0-2.489-2.498H126.46a2.494 2.494 0 0 0-2.49 2.498M21.685 54.771h-1.298a2.506 2.506 0 0 0-2.502 2.51v33.214c0 1.387 1.12 2.51 2.502 2.51h1.297a2.506 2.506 0 0 0 2.502-2.51V57.281c0-1.386-1.12-2.51-2.501-2.51M131.124 54.771h-.479a2.224 2.224 0 0 0-2.221 2.228v33.778c0 1.23.994 2.228 2.221 2.228h.479a2.224 2.224 0 0 0 2.221-2.228V56.999c0-1.23-.994-2.228-2.221-2.228M179.707 54.771h-1.099a2.447 2.447 0 0 0-2.443 2.451v33.332a2.447 2.447 0 0 0 2.443 2.451h1.099a2.447 2.447 0 0 0 2.443-2.451V57.222a2.447 2.447 0 0 0-2.443-2.451"/></g></svg>
